X:1
T:Psalm 136
T:V 8
L:1/4
M:12/4
I:linebreak $
K:G
V:1 treble nm="Pipe Organ" snm="Org."
V:1
 D2 D2 G A B c d3 z |$[M:14/4] B2 d2 c B G2 A2 G3 z |$[M:12/4] B2 A2 G G c c B3 z |$ %3
w: Maan en ster- re,\_in- min- der prag,|lig en von- kel deur die nag;|want sy goe- der- tie- ren- heid|
 G2 A2 F G E E D4 |] %4
w: sal be- staan in e- wig- heid!|

